!!!COM: Mozart, Wolfgang Amadeus
!!!OPR: Quartet in B-flat Major
!!!OTL: Rondo: Allegro grazioso
!!!OMV: 3
!!!SCT: K 159
!!!SCA: Chronologisch-thematisches Verzeichnis sämtlicher Tonwerke Wolfgang Amade Mozarts (L. von Köchel; 1862, 2/1905, 3/1937, 1947)
!!!YOR: Breitkopf & Härtel Edition
!!!EED: Edmund Correia, Jr.
!!!ENC: Edmund Correia, Jr.
!!!CDT: 1756/1/27/-1791/12/5/
!!!OCY: Österreich
!!!YEC: Copyright (c) 1994, 2000 Center for Computer Assisted Research in the Humanities
!!!YEM: Rights to all derivative editions reserved.
!!!YEM: Refer to licensing agreement for further details.
!!!YEN: United States of America
**kern	**kern	**kern	**kern
*I:Violino 1	*I:Violino 2	*I:Viola	*I:Violoncello
*>[A,A,B,C,C,D]	*>[A,A,B,C,C,D]	*>[A,A,B,C,C,D]	*>[A,A,B,C,C,D]
*>A	*>A	*>A	*>A
*clefG2	*clefG2	*clefC3	*clefF4
*k[b-e-]	*k[b-e-]	*k[b-e-]	*k[b-e-]
*B-:	*B-:	*B-:	*B-:
*M2/4	*M2/4	*M2/4	*M2/4
! Allegro grazioso	! Allegro grazioso	! Allegro grazioso	! Allegro grazioso
=1-	=1-	=1-	=1-
8dd	8B-'	8r	4B-
8r	8f'	8b-'	.
8ff	8d'	(8dd	4r
8r	8f'	8b-)	.
=2	=2	=2	=2
8cc	8e-'	8r	4A
8r	8f'	8a'	.
8ff	8c'	(8cc	4r
8r	8f'	8a)	.
=3	=3	=3	=3
8dd	8B-'	8r	4B-
8r	8f'	8b-'	.
8bb-	8d'	(8dd	4r
8r	8f'	8b-)	.
=4	=4	=4	=4
(16aa	(16c	(16a	4F
16bb-	16d	16b-	.
16ccc	16e-	16cc	.
16bb-	16d	16b-	.
4aa)	4c)	4a)	4F
=5	=5	=5	=5
8dd	8B-'	8r	4B-
8r	8f'	8b-'	.
8ff	8d'	(8dd	4r
8r	8f'	8b-)	.
=6	=6	=6	=6
8gg	8B-'	8r	4E-
8r	8e-'	8g'	.
8ee-	8g'	(8cc	4r
8r	8B-'	8g)	.
=7	=7	=7	=7
8cc	8A'	8r	4F
8r	8c'	8f'	.
8a	8f'	(8c	4r
8r	8e-'	8A)	.
=8	=8	=8	=8
(16b-	(16d	(16B-	4BB-
16cc	16e-	16c	.
16dd	16f	16d	.
16cc	16e-	16c	.
4b-)	4d)	4B-)	4BB-
=9:|!	=9:|!	=9:|!	=9:|!
*>B	*>B	*>B	*>B
8bb-'	8dd'	2r	2r
8aa'	8cc'	.	.
8ddd'	8b-'	.	.
8ccc'	8a'	.	.
=10	=10	=10	=10
8bb-'	8dd'	2r	2r
8aa'	8cc'	.	.
8ddd'	8b-'	.	.
8ccc'	8a'	.	.
=11	=11	=11	=11
8bb-'	8dd'	2r	2r
8aa'	8cc'	.	.
8gg'	8b-'	.	.
8ff'	8a'	.	.
=12	=12	=12	=12
(4ff	(4a	2r	2r
4een)	4g)	.	.
=13	=13	=13	=13
4.gg	4.b-	16c	8r
.	.	16c	.
.	.	16c	8C
.	.	16c	.
.	.	16c	8D
.	.	16c	.
8b-	8g	16c	8En
.	.	16c	.
=14	=14	=14	=14
(16a	(16f	8c	4F
16cc)	16a)	.	.
(16b-	(16g	8f	.
16dd)	16b-)	.	.
4cc	4a	8F	4FF
.	.	8f	.
=15	=15	=15	=15
4.gg	4.b-	16c	8r
.	.	16c	.
.	.	16c	8C
.	.	16c	.
.	.	16c	8D
.	.	16c	.
8b-	8g	16c	8En
.	.	16c	.
=16	=16	=16	=16
(16a	(16f	8c	4F
16cc)	16a)	.	.
(16b-	(16g	8f	.
16dd)	16b-)	.	.
4cc	4a	8F	4FF
.	.	8f	.
=17	=17	=17	=17
8r	8r	4F	4AA
(8ccc	(8cc	.	.
8bbn	8bn	4r	4r
8ccc)	8cc)	.	.
=18	=18	=18	=18
8r	8r	4f	4BB-
(8dd	(8d	.	.
8cc#	8c#	4r	4r
8dd)	8d)	.	.
=19	=19	=19	=19
8r	8r	4d	4G
(8bb-	(8b-	.	.
8aa	8a	4r	4r
8bb-)	8b-)	.	.
=20	=20	=20	=20
8r	8r	4G	4En
(8ccn	(8cn	.	.
8bn	8Bn	4r	4r
8cc)	8c)	.	.
=21	=21	=21	=21
4.aa	4.a	4.c	4.Fxx
8gg	8g	8c#	8En
=22	=22	=22	=22
8ff	8f	8d	8D
8een	8en	8cn	8C
8dd	8d	8B-	8BB-
8cc	8c	8A	8AA
=23	=23	=23	=23
! 16ccP/	!	!	!
4b-	4d	4G	4GG
8a	4en	8c	4C
8g	.	8B-	.
=24	=24	=24	=24
4f 4c	4f	4A	4FF
4r	4r	4r	4r
=25!|:	=25!|:	=25!|:	=25!|:
*>C	*>C	*>C	*>C
8dd	8B-'	8r	4B-xx
8r	8f'	8b-'	.
8ff	8d'	(8dd	4r
8r	8f'	8b-)	.
=26	=26	=26	=26
8cc	8e-'	8r	4A
8r	8f'	8a'	.
8ff	8c'	(8cc	4r
8r	8f'	8a)	.
=27	=27	=27	=27
8dd	8B-'	8r	4B-
8r	8f'	8b-'	.
8bb-	8d'	(8dd	4r
8r	8f'	8b-)	.
=28	=28	=28	=28
(16aa	(16c	(16a	4F
16bb-	16d	16b-	.
16ccc	16e-	16cc	.
16bb-	16d	16b-	.
4aa)	4c)	4a)	4F
=29	=29	=29	=29
8dd	8B-'xx	8r	4B-
8r	8f'xx	8b-'	.
8ff	8d'xx	(8dd	4r
8r	8f'xx	8b-)	.
=30	=30	=30	=30
8gg	8B-'xx	8r	4E-
8r	8e-'xx	8g'	.
8ee-	8g'xx	(8b-	4r
8r	8B-'xx	8g)	.
=31	=31	=31	=31
8cc	8A'xx	8r	4F
8r	8c'xx	8e-'xx	.
8a	8f'xx	(8c	4r
8r	8e-'xx	8A)	.
=32	=32	=32	=32
(16b-	(16d	(16B-	4BB-
16cc	16e-	16c	.
16dd	16f	16d	.
16cc	16e-	16c	.
4b-)	4d)	4B-)	4BB-
=33:|!	=33:|!	=33:|!	=33:|!
*>D	*>D	*>D	*>D
(12dd	4b-?	4g	4G
12gg	.	.	.
12dd)	.	.	.
!	!  Source has staccato here, which violates the character of this section.	!	!
12dd'	12dd'	12b-'	4r
12dd'	12cc'	12a'	.
12dd'	12b-'	12g'	.
=34	=34	=34	=34
(12dd	4a	4f#	4d
12aa	.	.	.
12dd)	.	.	.
12dd'	12f#'	12d'	4r
12dd'	12g'	12en'	.
12dd'	12a'	12f#'	.
=35	=35	=35	=35
(12dd	4b-	4g	4G
12bb-	.	.	.
12dd)	.	.	.
12dd'	12b-'	12d'	4r
12dd'	12a'	12c'	.
12dd'	12g'	12B-'	.
=36	=36	=36	=36
(12dd	4f#	4A	4D
12aa	.	.	.
12dd)	.	.	.
12dd'	12d'	12F#'	12C
12dd'	12en'	12G'	12BB-
12dd'	12f#'	12A'	12AA
=37	=37	=37	=37
(12dd	6g	6B-	4GG
12bb-)	.	.	.
12bb-'	12r	12r	.
(12aa	(12d	(12A	4FFn
12dd)	12a)	12fn)	.
12dd'	12a'	12f'	.
=38	=38	=38	=38
(12cc	(12g	(12e-	4EE-
12gg)	12A)	12c)	.
12gg'	12A'	12c'	.
(12ff	(12B-	(12f	4DD
12b-)	12fn)	12d)	.
12b-'	12f'	12d'	.
=39	=39	=39	=39
(12a	4e-	4c	4CC
12cc	.	.	.
12dd	.	.	.
12ee-	(12A	8r	4C
12cc	12c	8c	.
12a)	12e-)	.	.
=40	=40	=40	=40
(4g	(4B-	2d	2D
4f#)	4A)	.	.
=41	=41	=41	=41
4dd	(12d	4G	4B-
.	12g	.	.
.	12d)	.	.
12dd'	12d'	4r	12B-'
12cc'	12d'	.	12A'
12b-'	12d'	.	12G'
=42	=42	=42	=42
4a	(12d	4d	4F#
.	12a	.	.
.	12d)	.	.
12f#'	12d'	4r	12D'
12g'	12d'	.	12En'
12a'	12d'	.	12F#'
=43	=43	=43	=43
4b-	(12d	4G	4G
.	12b-	.	.
.	12d)	.	.
12bb-'	12d'	4r	12d'
12aa'	12d'	.	12c'
12gg'	12d'	.	12B-'
=44	=44	=44	=44
4ff#	(12d	4D	4A
.	12a	.	.
.	12d)	.	.
12dd'	12d'	12c'	12F#'
12een'	12d'	12B-'	12G'
12ff#'	12d'	12A'	12A'
=45	=45	=45	=45
12gg'	(4d	4G	4B-
(12gg	.	.	.
12bb-)	.	.	.
12dd'	4g)	12B-'	4BB-
(12dd	.	(12B-	.
12gg)	.	12d)	.
=46	=46	=46	=46
12ee-'	4g	12c'	4C
(12ee-	.	(12c	.
12gg)	.	12e-)	.
12a'	12e-'	4g'	4c
(12a	(12e-	.	.
12cc)	12a)	.	.
=47	=47	=47	=47
12b-'	12g'	4d	4d
(12b-	(12d	.	.
12dd)	12B-)	.	.
12f#'	12A'	4D	4D
(12f#	(12A	.	.
12a)	12c)	.	.
=48	=48	=48	=48
4g	4B-	4D	4GG
4G	4r	4r	4r
=49	=49	=49	=49
8dd	8B-'	8r	4B-
8r	8f'	8b-'	.
8ffn	8d'	(8dd	4r
8r	8f'	8b-)	.
=50	=50	=50	=50
8cc	8e-'	8r	4A
8r	8f'	8a'	.
8ff	8c'	(8cc	4r
8r	8f'	8a)	.
=51	=51	=51	=51
8dd	8B-'	8r	4B-
8r	8f'	8b-'	.
8bb-	8d'	(8dd	4r
8r	8f'	8b-)	.
=52	=52	=52	=52
(16aa	(16c	(16a	4F
16bb-	16d	16b-	.
16ccc	16e-	16cc	.
16bb-	16d	16b-	.
4aa)	4c)	4a)	4F
=53	=53	=53	=53
8dd	8B-'	8r	4B-
8r	8f'	8b-'	.
8ff	8d'	(8dd	4r
8r	8f'	8b-)	.
=54	=54	=54	=54
8gg	8B-'	8r	4E-
8r	8e-'	8g'	.
8ee-	8g'	(8cc	4r
8r	8B-'	8g)	.
=55	=55	=55	=55
8cc	8A'	8r	4F
8r	8c'	8f'	.
8a	8f'	(8c	4r
8r	8e-'	8A)	.
=56	=56	=56	=56
(16b-	(16d	(16B-	4BB-
16cc	16e-	16c	.
16dd	16f	16d	.
16cc	16e-	16c	.
4b-)	4d)	4B-)	4BB-
=57	=57	=57	=57
16dd	16b-	16d	8BB-
16ff	16f	16B-	.
16dd	16b-	16d	8BB-
16ff	16f	16B-	.
16dd	16b-	16d	8BB-
16ff	16f	16B-	.
16dd	16b-	16d	8BB-
16ff	16f	16B-	.
=58	=58	=58	=58
16ee-	16cc	16A	8AA
16ff	16f	16c	.
16ee-	16cc	16A	8AA
16ff	16f	16c	.
16ee-	16cc	16A	8AA
16ff	16f	16c	.
16ee-	16cc	16A	8AA
16ff	16f	16c	.
=59	=59	=59	=59
16dd	16b-	16B-	8BB-
16ff	16f	16d	.
16dd	16b-	16B-	8BB-
16ff	16f	16d	.
16dd	16b-	16B-	8BB-
16ff	16f	16d	.
16dd	16b-	16B-	8BB-
16ff	16f	16d	.
=60	=60	=60	=60
16cc	8a	16f	8F
16ee-	.	16f	.
16cc	8b-	16f	8F
16ee-	.	16f	.
16ee-	8cc	16f	8F
16ff	.	16f	.
16cc	8a	16f	8F
16ff	.	16f	.
=61	=61	=61	=61
16dd	16b-	16f	8B-
16ff	16f	16d	.
16dd	16b-	16f	8B-
16ff	16f	16d	.
16dd	16b-	16f	8B-
16ff	16f	16d	.
16dd	16b-	16f	8B-
16ff	16f	16d	.
=62	=62	=62	=62
16b-	16g	16e-	8E-
16gg	16b-	16c	.
16b-	16g	16e-	8E-
16gg	16b-	16c	.
16b-	16g	16e-	8E-
16gg	16b-	16c	.
16b-	16g	16e-	8E-
16gg	16b-	16c	.
=63	=63	=63	=63
16a	16c	16f	8F
16cc	16e-	16A	.
16a	16c	16f	8F
16cc	16e-	16A	.
16a	16c	16f	8F
16cc	16e-	16A	.
16a	16c	16f	8F
16cc	16e-	16A	.
=64	=64	=64	=64
16b-	16d	4B-	4BB-
16d	16f	.	.
16f	16b-	.	.
16d	16f	.	.
4B-	4d	4F	4BB-
=65	=65	=65	=65
(4ff	(4f	4r	4r
4gg-	4g-	4d-	[4B-
=66	=66	=66	=66
4ee-	4e-	2c	4B-]
4ff)	4f)	.	4A
=67	=67	=67	=67
(4dd-	(4d-	[2B-	(4B-
4ee-	4e-)	.	4G-)
=68	=68	=68	=68
2ff)	[2c	4B-]	2F
.	.	[4A	.
=69	=69	=69	=69
(4gg-	4c]	(4A]	2E-
4a	4g-	4c	.
=70	=70	=70	=70
4b-	[2f	4d-	4D-
4cc)	.	4A)	4C
=71	=71	=71	=71
(4.dd-T	(4f]	2B-	4BB-
.	4gn	.	4En
16cc	.	.	.
16dd-)	.	.	.
=72	=72	=72	=72
4cc	4a)	4f	4F
4r	4r	4r	4FF
=73	=73	=73	=73
(4ff	(4f	4r	4r
4gg-	4g-	4d-	[4B-
=74	=74	=74	=74
4ee-	4e-	2c	4B-]
4ff)	4f)	.	4A
=75	=75	=75	=75
(4dd-	(4d-	[2B-	(4B-
4ee-	4e-)	.	4G-)
=76	=76	=76	=76
2ff)	[2c	4B-]	2F
.	.	[4A	.
=77	=77	=77	=77
(4gg-	4c]	(4A]	2E-
4a	(4g-	4c	.
=78	=78	=78	=78
4b-	4f	4d-	4D-
4ee-)	[4B-)	4e-)	4G-
=79	=79	=79	=79
(4dd-	(4B-]	2f	2F
4cc)	4A)	.	.
=80	=80	=80	=80
2b-	2B-	2d-	2BB-
=81	=81	=81	=81
(2dd-	4r	4r	4r
.	(4b-	(4g	(4En
=82	=82	=82	=82
4cc	4a	4g-	4E-
4b-)	4b-)	4f)	4D-)
=83	=83	=83	=83
(2dd-	4r	4r	4r
.	(4b-	(4gn	(4En
=84	=84	=84	=84
4cc	4a	4g-	4E-
4b-)	4b-)	4f)	4D-)
=85	=85	=85	=85
(2aa-	[2b-	(2f	4r
.	.	.	(4Dn
=86	=86	=86	=86
4gg-	2b-_	4e-)	4E-
4ff)	.	[4d-	4F)
=87	=87	=87	=87
(2een	2b-]	(4d-]	(2G-
.	.	8c	.
.	.	8B-)	.
=88	=88	=88	=88
4ff)	4a	4c	4F)
4r	4r	4r	4r
=89	=89	=89	=89
(2dd-	4r	4r	4r
.	(4g	(4B-	(4En
=90	=90	=90	=90
4cc	4g-	4A	4E-
4b-)	4f)	4B-)	4D-)
=91	=91	=91	=91
(2dd-	4r	4r	4r
.	(4gn	(4B-	(4En
=92	=92	=92	=92
4cc	4g-	4A	4E-
4b-)	4f)	4B-)	4D-)
=93	=93	=93	=93
(2gg-	4r	4r	4r
.	(4ee-	(4cc	4A
=94	=94	=94	=94
4ff	4dd-	4f	4B-
4ee-)	4cc)	4g-)	4E-
=95	=95	=95	=95
(4dd-	(4b-	(4f	4F
4cc)	4a)	4e-)	4FF
=96	=96	=96	=96
2b-	2b-	2d-	2BB-
=97	=97	=97	=97
8ddn	8B-'	8r	4B-
8r	8f'	8b-'	.
8ff	8dn'	(8ddn	4r
8r	8f'	8b-)	.
=98	=98	=98	=98
8cc	8e-'	8r	4A
8r	8f'	8a'	.
8ff	8c'	(8cc	4r
8r	8f'	8a)	.
=99	=99	=99	=99
8dd	8B-'	8r	4B-
8r	8f'	8b-'	.
8bb-	8d'	(8dd	4r
8r	8f'	8b-)	.
=100	=100	=100	=100
(16aan	(16c	(16a	4F
16bb-	16d	16b-	.
16ccc	16e-	16cc	.
16bb-	16d	16b-	.
4aa)	4c)	4a)	4F
=101	=101	=101	=101
8dd'	8B-'	8r	4B-
8r	8f'	8b-'	.
8ff'	8d'	(8dd	4r
8r	8f'	8b-)	.
=102	=102	=102	=102
8ggn'xx	8B-'	8r	4E-
8r	8e-'	8gn'	.
8ee-'xx	8gn'	(8b-	4r
8r	8B-'	8g)	.
=103	=103	=103	=103
8cc'xx	8A'	8r	4F
8r	8c'	8e-'	.
8a'xx	8f'	(8c	4r
8r	8e-'	8A)	.
=104	=104	=104	=104
(16b-	(16d	(16B-	4BB-
16cc	16e-	16c	.
16dd	16f	16d	.
16cc	16e-	16c	.
4b-)	4d)	4B-)	4BB-
=105	=105	=105	=105
8r	2r	2r	8dn'
(16gg	.	.	8r
16ff)	.	.	.
8r	.	.	8B-'
(16ee-	.	.	8r
16dd)	.	.	.
=106	=106	=106	=106
8r	2r	2r	8c'
(16ff	.	.	8r
16ee-)	.	.	.
8r	.	.	8A'
(16dd	.	.	8r
16cc)	.	.	.
=107	=107	=107	=107
8r	8r	2r	8B-'
(16ee-	(16g	.	8r
16dd)	16f)	.	.
8r	8r	.	8BB-'
(16cc	(16e-	.	8r
16b-)	16d)	.	.
=108	=108	=108	=108
8r	8r	2r	8F'
(16dd	(16f	.	8r
16cc)	16e-)	.	.
8r	8r	.	8FF'
(16b-	(16d	.	8r
16a)	16c)	.	.
=109	=109	=109	=109
8r	8r	[2B-	8BB-'
(16gg	(16e-	.	8r
16ff)	16d)	.	.
8r	8r	.	8B-'
(16ee-	(16c	.	8r
16dd)	16B-)	.	.
=110	=110	=110	=110
8r	8r	2B-]	8E-'
(16ccc	(16a	.	8r
16bb-)	16g)	.	.
8r	8r	.	8EE-'
(16aa	(16f	.	8r
16gg)	16e-)	.	.
=111	=111	=111	=111
8ff'	8d'	4.F	8FF'xx
8ee-'	8c'	.	8r
8dd'	8B-'	.	8F'xx
8cc'	8A'	8e-	8r
=112	=112	=112	=112
(4cc	(4A	(4e-	[4BB-
8b-)	8B-)	8d)	8BB-]
8r	8r	8r	8r
=113	=113	=113	=113
12ff'	12f'	4d	4BB-
12gg'	12g'	.	.
12aa'	12a'	.	.
12bb-'	12b-'	4f	4D
12ccc'	12cc'	.	.
12ddd'	12dd'	.	.
=114	=114	=114	=114
2eee-	2ee-	4g	4C
.	.	4a	4F
=115	=115	=115	=115
12ddd'	12dd'	4b-	4B-
12ccc'	12cc'	.	.
12bb-'	12b-'	.	.
12aa'	12a'	4B-	4D
12gg'	12g'	.	.
12ff'	12f'	.	.
=116	=116	=116	=116
2ee-	2e-	4G	4C
.	.	4A	4FF
=117	=117	=117	=117
12dd'	12d'	4B-	4BB-
12ee-'	12e-'	.	.
12ff'	12f'	.	.
12gg'	12g'	4B-	4G
12aa'	12a'	.	.
12bb-'	12b-'	.	.
=118	=118	=118	=118
2cc	2c	4G	4E-
.	.	4F	4D
=119	=119	=119	=119
12gg'xx	12g'xx	4E-	4C
12ff'xx	12f'xx	.	.
12ee-'xx	12e-'xx	.	.
12dd'xx	12d'xx	4G	4En
12cc'xx	12c'xx	.	.
12b-'xx	12B-'xx	.	.
=120	=120	=120	=120
2a	2A	4c	4F
.	.	4F	4E-
=121	=121	=121	=121
8ff'	8dd'	8F'	8D'
8r	8r	8r	8r
8bb-'	8cc'	8G'	8En'
8r	8r	8r	8r
=122	=122	=122	=122
8aa'	8cc'	8A'	8F'
8r	8r	8r	8r
8ee-'	8cc'	8f'	8A'
8r	8r	8r	8r
=123	=123	=123	=123
8dd'	8b-'	8f'	8B-'
8r	8r	8r	8r
8een'	8g'	8c'	8B-'
8r	8r	8r	8r
=124	=124	=124	=124
8ff'	8f'	8c'	8A'
8r	8r	8r	8r
8ff#'	8a'	8c'	8D'
8r	8r	8r	8r
=125	=125	=125	=125
8gg'	8g'	8B-'	8E-'
8r	8r	8r	8r
8a'	8f'	8c'	8E-'
8r	8r	8r	8r
=126	=126	=126	=126
8b-'	8f'	8d'	8D'
8r	8r	8r	8r
8ee-'	8b-'	8e-'	8G'
8r	8r	8r	8r
=127	=127	=127	=127
8dd'	8b-'	8f'	8F'
8r	8r	8r	8r
8cc'	8a'	8e-'	8FF'
8r	8r	8r	8r
=128	=128	=128	=128
4b-'	4b-'	4d'	4BB-'
4r	4r	4r	4r
=129	=129	=129	=129
16dd	16b-	16g	(4G
16dd	16b-	16g	.
16dd	16b-	16g	.
16dd	16b-	16g	.
16dd	16b-	16g	4B-)
16dd	16b-	16g	.
16dd	16b-	16g	.
16dd	16b-	16g	.
=130	=130	=130	=130
16cc	16b-	16g	(4E-
16cc	16b-	16g	.
16cc	16b-	16g	.
16cc	16b-	16g	.
16cc	16b-	16e-	4G)
16cc	16b-	16e-	.
16cc	16b-	16e-	.
16cc	16b-	16e-	.
=131	=131	=131	=131
16ee-	16a	16c	4F
16ee-	16a	16c	.
16ee-	16a	16c	.
16ee-	16a	16c	.
16ee-	16a	16c	4F#
16ee-	16a	16c	.
16ee-	16a	16c	.
16ee-	16a	16c	.
=132	=132	=132	=132
16dd	16b-	16B-	4G
16dd	16b-	16B-	.
16dd	16b-	16B-	.
16dd	16b-	16B-	.
16dd	16b-	16B-	4GG
16dd	16b-	16B-	.
16dd	16b-	16B-	.
16dd	16b-	16B-	.
=133	=133	=133	=133
16bb-	16dd	16f	(4D
16bb-	16dd	16f	.
16bb-	16dd	16f	.
16bb-	16dd	16f	.
16bb-	16dd	16f	4BB-)
16bb-	16dd	16f	.
16bb-	16dd	16f	.
16bb-	16dd	16f	.
=134	=134	=134	=134
16bb-	16cc	16g	(4E-
16bb-	16cc	16g	.
16bb-	16cc	16g	.
16bb-	16cc	16g	.
16bb-	16cc	16g	4G)
16bb-	16cc	16g	.
16bb-	16cc	16g	.
16bb-	16cc	16g	.
=135	=135	=135	=135
16aa	16cc	16f	4Fn
16aa	16cc	16f	.
16aa	16cc	16f	.
16aa	16cc	16f	.
16aa	16cc	16e-	4FF
16aa	16cc	16e-	.
16aa	16cc	16e-	.
16aa	16cc	16e-	.
=136	=136	=136	=136
4bb-	4b-	4d	4BB-
4r	4r	4r	4r
=137	=137	=137	=137
8dd	8B-'	8r	4B-
8r	8f'	8b-'	.
8ff	8d'	(8dd	4r
8r	8f'	8b-)	.
=138	=138	=138	=138
8cc	8e-'	8r	4A
8r	8f'	8a'	.
8ff	8c'	(8cc	4r
8r	8f'	8a)	.
=139	=139	=139	=139
8dd	8B-'	8r	4B-
8r	8f'	8b-'	.
8bb-	8d'	(8dd	4r
8r	8f'	8b-)	.
=140	=140	=140	=140
(16aa	(16c	(16a	4F
16bb-	16d	16b-	.
16ccc	16e-	16cc	.
16bb-	16d	16b-	.
4aa)	4c)	4a)	4F
=141	=141	=141	=141
8dd	8B-'	8r	4B-
8r	8f'	8b-'	.
8ff	8d'	(8dd	4r
8r	8f'	8b-)	.
=142	=142	=142	=142
8gg	8B-'	8r	4E-
8r	8e-'	8g'	.
8ee-	8g'	(8cc	4r
8r	8B-'	8g)	.
=143	=143	=143	=143
8cc	8A'	8r	4F
8r	8c'	8f'	.
8a	8f'	(8c	4r
8r	8e-'	8A)	.
=144	=144	=144	=144
(16b-	(16d	(16B-	4BB-
16cc	16e-	16c	.
16dd	16f	16d	.
16cc	16e-	16c	.
4b-)	4d)	4B-)	4BB-
=145	=145	=145	=145
(16d	(16d	(16d	(16D
16e-	16e-	16e-	16E-
16f	16f	16f	16F
16e-	16e-	16e-	16E-
4d)	4d)	4d)	4D)
=146	=146	=146	=146
(16e-	(16e-	(16e-	(16E-
16f	16f	16f	16F
16g	16g	16g	16G
16f	16f	16f	16F
4e-)	4e-)	4e-)	4E-)
=147	=147	=147	=147
8gg'	8ee-	8c	2r
8r	8r	8r	.
8aa'	8cc	8f	.
8r	8r	8r	.
=148	=148	=148	=148
(4bb-	4dd	4B-	2r
8ff)	4r	4r	.
8r	.	.	.
=149	=149	=149	=149
(16d	(16d	(16d	(16D
16e-	16e-	16e-	16E-
16f	16f	16f	16F
16e-	16e-	16e-	16E-
4d)	4d)	4d)	4D)
=150	=150	=150	=150
(16e-	(16e-	(16e-	(16E-
16f	16f	16f	16F
16g	16g	16g	16G
16f	16f	16f	16F
4e-)	4e-)	4e-)	4E-)
=151	=151	=151	=151
4gg	4ee-	4c	4C
4a	4e-	4c	4F
=152	=152	=152	=152
12b-	12d	4B-	4BB-
12ddd	12ff	.	.
12ccc	12ee-	.	.
12bb-	12dd	4r	4r
12aa	12cc	.	.
12gg	12b-	.	.
=153	=153	=153	=153
12ff	12a	2r	2r
12gg	12ee-	.	.
12ff	12dd	.	.
12ee-	12cc	.	.
12dd	12b-	.	.
12cc	12a	.	.
=154	=154	=154	=154
12b-	12b-	12b-	12B-
12dd	12dd	12dd	12d
12cc	12cc	12cc	12c
12b-	12b-	12b-	12B-
12a	12a	12a	12A
12g	12g	12g	12G
=155	=155	=155	=155
12f	12f	12f	12F
12g	12g	12g	12G
12f	12f	12f	12F
12e-	12e-	12e-	12E-
12d	12d	12d	12D
12c	12c	12c	12C
=156	=156	=156	=156
12B-	12B-	12B-	12BB-
12c	12c	12c	12C
12d	12d	12d	12D
12e-	12e-	12e-	12E-
12d	12d	12d	12D
12c	12c	12c	12C
=157	=157	=157	=157
12B-	12B-	12B-	12BB-
12c	12c	12c	12C
12d	12d	12d	12D
12e-	12e-	12e-	12E-
12d	12d	12d	12D
12c	12c	12c	12C
=158	=158	=158	=158
4B-	4B-	4B-	4BB-
4bb- 4b- 4d	4dd 4f 4B-	4b-	4B-
=159	=159	=159	=159
4bb- 4b- 4d	4dd 4f 4B-	4B-	4BB-
4r	4r	4r	4r
==|!	==|!	==|!	==|!
*-	*-	*-	*-
!!!RWG: Appoggiaturas of spine 'Violino 1' need manual editing in measures: 23
!!!RWG: Key is interpreted using the Humdrum key tool.
!!!AFT: stage2
!!!END: 1994/06/20
!!format changes:
!!content changes:
!!public access: complete
!!!KEY: 3429996710
!!!EMD: Converted from MuseData to Humdrum Dec 16, 2000, by Andreas Kornstaedt using muse2kern.
